Numix-Circle/48x48/apps/opensonic.svg

<?xml version="1.0" encoding="UTF-8" standalone="no"?>
<svg
   xmlns:dc="http://purl.org/dc/elements/1.1/"
   xmlns:cc="http://creativecommons.org/ns#"
   xmlns:rdf="http://www.w3.org/1999/02/22-rdf-syntax-ns#"
   xmlns:svg="http://www.w3.org/2000/svg"
   xmlns="http://www.w3.org/2000/svg"
   xmlns:xlink="http://www.w3.org/1999/xlink"
   xmlns:sodipodi="http://sodipodi.sourceforge.net/DTD/sodipodi-0.dtd"
   xmlns:inkscape="http://www.inkscape.org/namespaces/inkscape"
   width="48"
   viewBox="0 0 13.546667 13.546667"
   height="48"
   id="svg2"
   version="1.1"
   inkscape:version="0.91 r13725"
   sodipodi:docname="opensonic.svg"
   inkscape:export-filename="/home/ismael/Imágenes/icons.png"
   inkscape:export-xdpi="245"
   inkscape:export-ydpi="245">
  <metadata
     id="metadata331">
    <rdf:RDF>
      <cc:Work
         rdf:about="">
        <dc:format>image/svg+xml</dc:format>
        <dc:type
           rdf:resource="http://purl.org/dc/dcmitype/StillImage" />
        <dc:title />
      </cc:Work>
    </rdf:RDF>
  </metadata>
  <sodipodi:namedview
     pagecolor="#ffffff"
     bordercolor="#666666"
     borderopacity="1"
     objecttolerance="10"
     gridtolerance="10"
     guidetolerance="10"
     inkscape:pageopacity="0"
     inkscape:pageshadow="2"
     inkscape:window-width="1366"
     inkscape:window-height="713"
     id="namedview329"
     showgrid="true"
     inkscape:zoom="16.008898"
     inkscape:cx="15.783276"
     inkscape:cy="21.073876"
     inkscape:window-x="0"
     inkscape:window-y="28"
     inkscape:window-maximized="1"
     inkscape:current-layer="layer2"
     showguides="true"
     inkscape:guide-bbox="true">
    <inkscape:grid
       type="xygrid"
       id="grid3308" />
  </sodipodi:namedview>
  <defs
     id="defs4">
    <linearGradient
       inkscape:collect="always"
       xlink:href="#linearGradient3200"
       id="linearGradient4033"
       x1="-27"
       y1="13"
       x2="-24"
       y2="13"
       gradientUnits="userSpaceOnUse" />
    <linearGradient
       id="linearGradient3200">
      <stop
         id="stop3202"
         offset="0"
         style="stop-color:#eff7fb;stop-opacity:1;" />
      <stop
         id="stop3204"
         offset="1"
         style="stop-color:#dfeff7;stop-opacity:1;" />
    </linearGradient>
  </defs>
  <g
     inkscape:groupmode="layer"
     id="layer1"
     inkscape:label="Shadow"
     sodipodi:insensitive="true">
    <path
       style="opacity:0.05;fill:#000000;fill-opacity:1;stroke:none"
       d="M 25,2 C 12.297451,2 2,12.297451 2,25 2,31.367153 4.6007106,37.116628 8.78125,41.28125 12.865755,44.99361 18.29568,47.25 24.25,47.25 c 12.702549,0 23,-10.297451 23,-23 0,-5.95432 -2.25639,-11.384245 -5.96875,-15.46875 C 37.116628,4.6007105 31.367153,2 25,2 z M 41.28125,8.78125 C 45.135604,12.894061 47.5,18.418655 47.5,24.5 c 0,12.702549 -10.297451,23 -23,23 C 18.418655,47.5 12.894061,45.135604 8.78125,41.28125 12.940939,45.4251 18.664604,48 25,48 37.702549,48 48,37.702549 48,25 48,18.664604 45.4251,12.940939 41.28125,8.78125 z"
       transform="scale(0.28222223,0.28222223)"
       id="path3978"
       inkscape:connector-curvature="0" />
    <path
       style="opacity:0.1;fill:#000000;fill-opacity:1;stroke:none"
       d="M 41.28125,8.78125 C 44.99361,12.865755 47.25,18.29568 47.25,24.25 c 0,12.702549 -10.297451,23 -23,23 -5.95432,0 -11.384245,-2.25639 -15.46875,-5.96875 C 12.894061,45.135604 18.418655,47.5 24.5,47.5 c 12.702549,0 23,-10.297451 23,-23 0,-6.081345 -2.364396,-11.605939 -6.21875,-15.71875 z"
       transform="scale(0.28222223,0.28222223)"
       id="path3976"
       inkscape:connector-curvature="0" />
    <path
       transform="matrix(4.3274074,0,0,3.2455556,117.19278,-35.348334)"
       d="m -24,13 a 1.5,2 0 1 1 -3,0 1.5,2 0 1 1 3,0 z"
       sodipodi:ry="2"
       sodipodi:rx="1.5"
       sodipodi:cy="13"
       sodipodi:cx="-25.5"
       id="path3952"
       style="opacity:0.2;fill:#000000;fill-opacity:1;stroke:none"
       sodipodi:type="arc" />
  </g>
  <g
     inkscape:groupmode="layer"
     id="layer2"
     inkscape:label="Base">
    <path
       sodipodi:type="arc"
       style="fill:url(#linearGradient4033);fill-opacity:1;stroke:none"
       id="path3942"
       sodipodi:cx="-25.5"
       sodipodi:cy="13"
       sodipodi:rx="1.5"
       sodipodi:ry="2"
       d="m -24,13 a 1.5,2 0 1 1 -3,0 1.5,2 0 1 1 3,0 z"
       transform="matrix(0,4.3274075,3.2455556,0,-35.418894,117.12222)" />
    <path
       style="opacity:0.1;fill:#000000;fill-opacity:1;stroke:none"
       d="M 40.03125 7.53125 C 43.74361 11.615755 46 17.04568 46 23 C 46 35.702549 35.702549 46 23 46 C 17.04568 46 11.615755 43.74361 7.53125 40.03125 C 11.709416 44.322508 17.537578 47 24 47 C 36.702549 47 47 36.702549 47 24 C 47 17.537578 44.322508 11.709416 40.03125 7.53125 z "
       id="path4027"
       transform="scale(0.28222223,0.28222223)" />
    <g
       transform="translate(0.41753201,0.38934038)"
       id="g4611"
       style="fill:#000000;opacity:0.1">
      <g
         id="g4613"
         transform="matrix(0.92857144,0,0,0.92857144,0.473884,0.4313671)"
         style="fill:#000000">
        <path
           sodipodi:nodetypes="csscacscacacsscc"
           inkscape:connector-curvature="0"
           id="path4615"
           d="M 3.9220866,6.0914051 C 4.4108955,5.3081459 3.5631626,6.2773144 4.2688669,5.3978443 4.9513552,4.5473066 6.3821791,3.7961284 7.04311,3.6639422 c 1.733902,-0.3467803 3.524653,1.0563209 3.524653,1.0563209 0,0 -0.8116531,0.194157 -1.1723184,0.3937921 -0.2438877,0.1349965 -0.6465555,0.5303894 -0.6465555,0.5303894 0,0 0.186687,-0.2959257 1.0994963,-0.011373 0.3921576,0.1222486 0.9754126,0.6028289 0.9754126,0.6028289 0,0 -0.750459,0.219537 -1.09371,0.4011015 -0.2879655,0.1523209 -0.7945119,0.5691071 -0.7945119,0.5691071 0,0 0.6365396,-0.1021649 0.9287956,0 0.4139273,0.1446983 1.0289753,0.8195569 1.0289753,0.8195569 0,0 -0.458276,-0.020557 -0.9082237,0.1991 C 9.5351763,8.4444229 8.9933789,8.7039315 8.6259776,8.8633412 8.0406361,9.1173119 7.0431101,9.5592094 7.0431101,9.5592094 c 0,0 -3.2439694,-1.8193556 -3.1210235,-3.4678043 z"
           style="fill:#000000;fill-rule:evenodd;stroke:none" />
        <path
           sodipodi:nodetypes="csssc"
           inkscape:connector-curvature="0"
           id="path4617"
           d="m 8.6036219,7.9986973 c 0,1.1491289 -1.2514075,1.7193764 -2.5636712,1.9937994 C 4.9749468,10.215212 3.5631626,9.992497 3.401916,7.3051365 3.33309,6.1580705 4.8355086,5.918015 6.1761592,5.918015 c 1.2523373,0 2.2991272,0.8165959 2.4167347,1.8852844"
           style="fill:#000000;fill-opacity:1;stroke:none" />
        <path
           sodipodi:nodetypes="assaa"
           inkscape:connector-curvature="0"
           id="path4619"
           d="M 8.6036219,8.3454777 C 8.7018929,9.4920876 6.4912345,9.6211005 5.4207538,9.6828982 4.5663219,9.7322237 5.1111553,10.302095 3.5753062,9.2124285 2.8724011,8.7137258 5.3228914,7.9474599 6.3495493,7.825307 7.1152531,7.7342021 8.5377752,7.5771896 8.6036219,8.3454777 z"
           style="fill:#000000;fill-opacity:1;stroke:none" />
        <path
           transform="matrix(0.34678039,0,0,0.34678039,-1.97318,0.36952861)"
           d="m 18.5,24 a 2,1 0 0 1 -2,1 2,1 0 0 1 -2,-1 2,1 0 0 1 2,-1 2,1 0 0 1 2,1 z"
           sodipodi:ry="1"
           sodipodi:rx="2"
           sodipodi:cy="24"
           sodipodi:cx="16.5"
           id="path4621"
           style="fill:#000000;fill-opacity:1;stroke:none"
           sodipodi:type="arc" />
        <path
           sodipodi:nodetypes="csssc"
           inkscape:connector-curvature="0"
           id="path4623"
           d="M 5.3092081,6.0914051 C 5.5843781,6.4832401 4.6334953,7.1718728 4.3983945,7.3369747 4.1632936,7.5020766 3.8383326,7.5979449 3.5631626,7.2061099 3.2879927,6.814275 2.8200347,5.7363364 3.0551357,5.5712345 3.2747499,5.4170083 3.9220866,5.7446246 4.9624278,5.3978443"
           style="fill:#000000;fill-opacity:1;stroke:none" />
      </g>
      <g
         id="g4625"
         transform="matrix(1.0186453,0,0,1.0186453,-0.24224574,-0.06435355)"
         style="fill:#000000" />
    </g>
    <g
       id="g4137">
      <g
         style="fill:#2f2fb7;fill-opacity:1"
         transform="matrix(0.92857144,0,0,0.92857144,0.60919378,0.53848525)"
         id="g4220">
        <path
           style="fill:#2f2fb7;fill-opacity:1;fill-rule:evenodd;stroke:none"
           d="M 3.9220866,6.0914051 C 4.4108955,5.3081459 3.5631626,6.2773144 4.2688669,5.3978443 4.9513552,4.5473066 6.3821791,3.7961284 7.04311,3.6639422 c 1.733902,-0.3467803 3.524653,1.0563209 3.524653,1.0563209 0,0 -0.8116531,0.194157 -1.1723184,0.3937921 -0.2438877,0.1349965 -0.6465555,0.5303894 -0.6465555,0.5303894 0,0 0.186687,-0.2959257 1.0994963,-0.011373 0.3921576,0.1222486 0.9754126,0.6028289 0.9754126,0.6028289 0,0 -0.750459,0.219537 -1.09371,0.4011015 -0.2879655,0.1523209 -0.7945119,0.5691071 -0.7945119,0.5691071 0,0 0.6365396,-0.1021649 0.9287956,0 0.4139273,0.1446983 1.0289753,0.8195569 1.0289753,0.8195569 0,0 -0.458276,-0.020557 -0.9082237,0.1991 C 9.5351763,8.4444229 8.9933789,8.7039315 8.6259776,8.8633412 8.0406361,9.1173119 7.0431101,9.5592094 7.0431101,9.5592094 c 0,0 -3.2439694,-1.8193556 -3.1210235,-3.4678043 z"
           id="path3379"
           inkscape:connector-curvature="0"
           sodipodi:nodetypes="csscacscacacsscc" />
        <path
           style="fill:#2f2fb7;fill-opacity:1;stroke:none"
           d="m 8.6036219,7.9986973 c 0,1.1491289 -1.2514075,1.7193764 -2.5636712,1.9937994 C 4.9749468,10.215212 3.5631626,9.992497 3.401916,7.3051365 3.33309,6.1580705 4.8355086,5.918015 6.1761592,5.918015 c 1.2523373,0 2.2991272,0.8165959 2.4167347,1.8852844"
           id="path3370"
           inkscape:connector-curvature="0"
           sodipodi:nodetypes="csssc" />
        <path
           style="fill:#2f2fb7;fill-opacity:1;stroke:none"
           d="M 8.6036219,8.3454777 C 8.7018929,9.4920876 6.4912345,9.6211005 5.4207538,9.6828982 4.5663219,9.7322237 5.1111553,10.302095 3.5753062,9.2124285 2.8724011,8.7137258 5.3228914,7.9474599 6.3495493,7.825307 7.1152531,7.7342021 8.5377752,7.5771896 8.6036219,8.3454777 Z"
           id="path3367"
           inkscape:connector-curvature="0"
           sodipodi:nodetypes="assaa" />
        <ellipse
           style="fill:#2f2fb7;fill-opacity:1;stroke:none"
           id="path3365"
           transform="matrix(0.34678039,0,0,0.34678039,-1.97318,0.36952861)"
           cx="16.5"
           cy="24"
           rx="2"
           ry="1" />
        <path
           style="fill:#2f2fb7;fill-opacity:1;stroke:none"
           d="M 5.3092081,6.0914051 C 5.5843781,6.4832401 4.6334953,7.1718728 4.3983945,7.3369747 4.1632936,7.5020766 3.8383326,7.5979449 3.5631626,7.2061099 3.2879927,6.814275 2.8200347,5.7363364 3.0551357,5.5712345 3.2747499,5.4170083 3.9220866,5.7446246 4.9624278,5.3978443"
           id="path3373"
           inkscape:connector-curvature="0"
           sodipodi:nodetypes="csssc" />
      </g>
      <g
         id="g4128">
        <path
           style="fill:#f9f9f9;stroke:none"
           d="m 4.2053292,8.2170184 c 0,0 -0.1058537,-0.1234268 -0.1228167,-0.1997165 C 4.0042367,7.6652634 3.8547849,7.0271035 4.2053292,6.9423889 4.5411745,6.8612263 4.7802979,7.804842 4.7802979,7.804842 c 0,0 0.1613973,-0.749267 0.4037647,-1.0252454 0.187501,-0.2135034 0.4586884,-0.4121763 0.7461727,-0.4121763 0.5749688,0 0.566557,1.1499374 0.2790726,1.724906 -0.2874843,0.5749687 -1.42901,0 -1.42901,0 z"
           id="path3386"
           inkscape:connector-curvature="0"
           sodipodi:nodetypes="caacasccc" />
        <g
           id="g4124">
          <ellipse
             transform="matrix(0.57496862,0,0,0.57496862,8.9446149,-5.1129017)"
             id="path3388"
             style="fill:#4d4d4d;fill-opacity:1;stroke:none"
             cx="-5.5"
             cy="22"
             rx="0.5"
             ry="1.0000001" />
          <path
             style="fill:#e6e6e6;stroke:none"
             d="m 5.761242,7.0845843 c 0.1489213,-0.05381 0.1918824,0.1323199 0.1918824,0.2238529 0,0.09153 0.030511,0.427147 -0.030511,0.305105 -0.061021,-0.122042 -0.03051,-0.274595 -0.1525525,-0.274595 -0.1220421,0 -0.1577403,-0.2005534 -0.00882,-0.2543629 z"
             id="path4086"
             inkscape:connector-curvature="0"
             sodipodi:nodetypes="zzzcz" />
        </g>
        <g
           id="g4120">
          <ellipse
             style="fill:#4d4d4d;fill-opacity:1;stroke:none"
             id="path3390"
             transform="matrix(0.43122647,0,0,0.43122647,6.7926881,-1.7751646)"
             cx="-5.5"
             cy="22"
             rx="0.5"
             ry="1.0000001" />
          <path
             sodipodi:nodetypes="zzzcz"
             inkscape:connector-curvature="0"
             id="path4118"
             d="m 4.4054076,7.3761079 c 0.1130603,-0.040852 0.1456761,0.1004566 0.1456761,0.1699479 0,0.069489 0.023164,0.3242877 -0.023164,0.2316341 -0.046327,-0.092654 -0.023163,-0.2084711 -0.115817,-0.2084711 -0.092654,0 -0.1197556,-0.152259 -0.0067,-0.1931109 z"
             style="fill:#e6e6e6;stroke:none" />
        </g>
      </g>
    </g>
  </g>
  <g
     inkscape:groupmode="layer"
     id="layer3"
     inkscape:label="Symbol" />
</svg>

<svg xmlns="http://www.w3.org/2000/svg" width="48" viewBox="0 0 13.546667 13.546667" height="48"><defs><linearGradient id="linearGradient4033" x1="-27" x2="-24" gradientUnits="userSpaceOnUse"><stop stop-color="#eff7fb" stop-opacity="1"/><stop offset="1" stop-color="#dfeff7" stop-opacity="1"/></linearGradient></defs><g><path d="m 25 2 c -12.703 0 -23 10.297 -23 23 0 6.367 2.601 12.12 6.781 16.281 4.085 3.712 9.514 5.969 15.469 5.969 c 12.703 0 23 -10.297 23 -23 0 -5.954 -2.256 -11.384 -5.969 -15.469 c -4.165 -4.181 -9.914 -6.781 -16.281 -6.781 z m 16.281 6.781 c 3.854 4.113 6.219 9.637 6.219 15.719 c 0 12.703 -10.297 23 -23 23 c -6.081 0 -11.606 -2.364 -15.719 -6.219 4.16 4.144 9.883 6.719 16.219 6.719 12.703 0 23 -10.297 23 -23 0 -6.335 -2.575 -12.06 -6.719 -16.219 z" transform="scale(0.28222223,0.28222223)" opacity="0.05" fill="#000" stroke="none" fill-opacity="1"/><path d="m 41.28 8.781 c 3.712 4.085 5.969 9.514 5.969 15.469 c 0 12.703 -10.297 23 -23 23 -5.954 0 -11.384 -2.256 -15.469 -5.969 c 4.113 3.854 9.637 6.219 15.719 6.219 c 12.703 0 23 -10.297 23 -23 0 -6.081 -2.364 -11.606 -6.219 -15.719 z" transform="scale(0.28222223,0.28222223)" opacity="0.1" fill="#000" stroke="none" fill-opacity="1"/><path transform="matrix(4.3274074,0,0,3.2455556,117.19278,-35.348334)" d="m -24 13 a 1.5 2 0 1 1 -3 0 1.5 2 0 1 1 3 0 z" opacity="0.2" fill="#000" stroke="none" fill-opacity="1"/></g><g><path d="m -24 13 a 1.5 2 0 1 1 -3 0 1.5 2 0 1 1 3 0 z" transform="matrix(0,4.3274075,3.2455556,0,-35.418894,117.12222)" fill="url(#linearGradient4033)" stroke="none" fill-opacity="1"/><path d="m 40.03 7.531 c 3.712 4.085 5.969 9.514 5.969 15.469 c 0 12.703 -10.297 23 -23 23 c -5.954 0 -11.384 -2.256 -15.469 -5.969 c 4.178 4.291 10.01 6.969 16.469 6.969 c 12.703 0 23 -10.297 23 -23 c 0 -6.462 -2.677 -12.291 -6.969 -16.469 z" transform="scale(0.28222223,0.28222223)" opacity="0.1" fill="#000" stroke="none" fill-opacity="1"/><g transform="translate(0.41753201,0.38934038)" opacity="0.1" fill="#000"><g transform="matrix(0.92857144,0,0,0.92857144,0.473884,0.4313671)" fill="#000"><path d="m 28.469 14.785 c -0.707 -0.017 -1.424 0.035 -2.137 0.178 c -2.175 0.435 -6.883 2.907 -9.129 5.705 c -0.247 0.308 -0.254 0.333 -0.396 0.518 c -1.866 0.114 -3.087 -0.305 -3.596 0.053 c -0.659 0.463 0.36 3.094 1.236 4.664 c -0.076 0.321 -0.118 0.662 -0.096 1.041 c 0.08 1.341 0.264 2.476 0.516 3.467 a 2.282 1.141 0 0 0 -1.656 1.098 a 2.282 1.141 0 0 0 1.311 1.031 c -0.018 0.237 0.099 0.466 0.4 0.68 c 1.387 0.984 2.234 1.532 2.826 1.842 c 1.633 1.08 3.59 1.079 5.283 0.725 c 2.273 -0.475 4.484 -1.224 6.074 -2.375 c 0.586 -0.253 1.091 -0.56 1.486 -0.924 c 0.412 -0.18 0.597 -0.264 0.947 -0.416 c 1.209 -0.524 2.992 -1.379 4.473 -2.102 c 1.48 -0.723 2.988 -0.654 2.988 -0.654 c 0 0 -2.023 -2.221 -3.385 -2.697 c -0.962 -0.336 -3.057 0 -3.057 0 c 0 0 1.666 -1.37 2.613 -1.871 c 1.129 -0.597 3.6 -1.32 3.6 -1.32 c 0 0 -1.919 -1.582 -3.209 -1.984 c -2.235 -0.697 -3.144 -0.336 -3.465 -0.105 c 0.224 -0.217 1.253 -1.202 1.975 -1.602 c 1.187 -0.657 3.857 -1.295 3.857 -1.295 c 0 0 -4.511 -3.535 -9.461 -3.654 z" transform="matrix(0.30393163,0,0,0.30393163,-0.95998646,-0.88383881)" fill="#000" fill-rule="evenodd" stroke="none"/></g></g><g><g transform="matrix(0.92857144,0,0,0.92857144,0.60919378,0.53848525)" fill="#2f2fb7" fill-opacity="1"><path d="m 3.922 6.091 c 0.489 -0.783 -0.359 0.186 0.347 -0.694 0.682 -0.851 2.113 -1.602 2.774 -1.734 c 1.734 -0.347 3.525 1.056 3.525 1.056 0 0 -0.812 0.194 -1.172 0.394 -0.244 0.135 -0.647 0.53 -0.647 0.53 0 0 0.187 -0.296 1.099 -0.011 0.392 0.122 0.975 0.603 0.975 0.603 0 0 -0.75 0.22 -1.094 0.401 -0.288 0.152 -0.795 0.569 -0.795 0.569 0 0 0.637 -0.102 0.929 0 0.414 0.145 1.029 0.82 1.029 0.82 0 0 -0.458 -0.021 -0.908 0.199 c -0.45 0.22 -0.992 0.479 -1.359 0.639 -0.585 0.254 -1.583 0.696 -1.583 0.696 c 0 0 -3.244 -1.819 -3.121 -3.468 z" fill-rule="evenodd" stroke="none"/><path d="m 8.604 7.999 c 0 1.149 -1.251 1.719 -2.564 1.994 c -1.065 0.223 -2.477 0 -2.638 -2.687 -0.069 -1.147 1.434 -1.387 2.774 -1.387 c 1.252 0 2.299 0.817 2.417 1.885" stroke="none"/><path d="m 8.604 8.345 c 0.098 1.147 -2.112 1.276 -3.183 1.337 -0.854 0.049 -0.31 0.619 -1.845 -0.47 -0.703 -0.499 1.748 -1.265 2.774 -1.387 0.766 -0.091 2.188 -0.248 2.254 0.52" stroke="none"/><ellipse transform="matrix(0.34678039,0,0,0.34678039,-1.97318,0.36952861)" cx="16.5" cy="24" rx="2" ry="1" stroke="none"/><path d="m 5.309 6.091 c 0.275 0.392 -0.676 1.08 -0.911 1.246 -0.235 0.165 -0.56 0.261 -0.835 -0.131 -0.275 -0.392 -0.743 -1.47 -0.508 -1.635 0.22 -0.154 0.867 0.173 1.907 -0.173" stroke="none"/></g><g><path d="m 4.205 8.217 c 0 0 -0.106 -0.123 -0.123 -0.2 c -0.078 -0.352 -0.228 -0.99 0.123 -1.075 0.336 -0.081 0.575 0.862 0.575 0.862 c 0 0 0.161 -0.749 0.404 -1.025 0.188 -0.214 0.459 -0.412 0.746 -0.412 0.575 0 0.567 1.15 0.279 1.725 -0.287 0.575 -1.429 0 -1.429 0 z" fill="#f9f9f9" stroke="none"/><g><ellipse transform="matrix(0.57496862,0,0,0.57496862,8.9446149,-5.1129017)" cx="-5.5" cy="22" rx="0.5" ry="1" fill="#4d4d4d" stroke="none" fill-opacity="1"/><path d="m 5.761 7.085 c 0.149 -0.054 0.192 0.132 0.192 0.224 0 0.092 0.031 0.427 -0.031 0.305 -0.061 -0.122 -0.031 -0.275 -0.153 -0.275 -0.122 0 -0.158 -0.201 -0.009 -0.254 z" fill="#e6e6e6" stroke="none"/></g><g><ellipse transform="matrix(0.43122647,0,0,0.43122647,6.7926881,-1.7751646)" cx="-5.5" cy="22" rx="0.5" ry="1" fill="#4d4d4d" stroke="none" fill-opacity="1"/><path d="m 4.405 7.376 c 0.113 -0.041 0.146 0.1 0.146 0.17 0 0.069 0.023 0.324 -0.023 0.232 -0.046 -0.093 -0.023 -0.208 -0.116 -0.208 -0.093 0 -0.12 -0.152 -0.007 -0.193 z" fill="#e6e6e6" stroke="none"/></g></g></g></g></svg>
